maps/states/CT.svg

<?xml version="1.0" standalone="yes"?>
<svg xmlns="http://www.w3.org/2000/svg" version="1.2" id="root" viewBox="815.7715708903064 195.48651675571512 25.5698849508143 24.803775454741526"><g id="counties"><path id="county-09005" class="county feature" d="M821.6208991622028,199.14870586913503L822.2249516584172,199.01750358366792L822.2718053201645,200.405486581393L824.1494147971764,199.8152240610558L824.0715400258516,203.0646743196072L823.1987719575654,203.44056942897396L824.3671646782075,206.22620131487417L822.6069534911455,209.0899985403222L820.7234094597806,210.42832341634607L818.8560468149934,210.44554234781253L817.0455411563978,207.48441660244578L815.7715708903064,200.38561543899334Z" style="fill: inherit; stroke: inherit; stroke-width: inherit;" vector-effect="non-scaling-stroke"><title>Litchfield County</title></path><path id="county-09003" class="county feature" d="M828.9181582932212,197.4390131148475L829.9754561032014,201.528025149188L830.3830133983832,201.3594497134494L832.2342382946338,204.99019459451642L831.5644693532306,205.5069321961738L830.7531103294792,204.4879385780945L828.039962154593,205.54359762837873L827.7460382533436,206.56303220905465L825.2335709513817,207.61654754250128L824.3671646782075,206.22620131487417L823.1987719575654,203.44056942897396L824.0715400258516,203.0646743196072L824.1494147971764,199.8152240610558L822.2718053201645,200.405486581393L822.2249516584172,199.01750358366792Z" style="fill: inherit; stroke: inherit; stroke-width: inherit;" vector-effect="non-scaling-stroke"><title>Hartford County</title></path><path id="county-09013" class="county feature" d="M833.9241016460314,196.24260092247857L834.3759761209913,196.15372759983427L834.7410890100639,197.41595637398018L833.1724083153047,197.83357265461086L833.7357798880574,200.07782948075157L834.9323307598956,201.35194010075827L834.0106167408228,202.3565358754256L832.2342382946338,204.99019459451642L830.3830133983832,201.3594497134494L829.9754561032014,201.528025149188L828.9181582932212,197.4390131148475Z" style="fill: inherit; stroke: inherit; stroke-width: inherit;" vector-effect="non-scaling-stroke"><title>Tolland County</title></path><path id="county-09015" class="county feature" d="M838.5140136694833,195.48651675571512L839.987367642271,200.61497540211053L840.4173540534615,202.1479431947181L838.234616793902,202.82188480408752L835.3919318667408,202.94520899145084L834.0106167408228,202.3565358754256L834.9323307598956,201.35194010075827L833.7357798880574,200.07782948075157L833.1724083153047,197.83357265461086L834.7410890100639,197.41595637398018L834.3759761209913,196.15372759983427Z" style="fill: inherit; stroke: inherit; stroke-width: inherit;" vector-effect="non-scaling-stroke"><title>Windham County</title></path><path id="county-09011" class="county feature" d="M840.4173540534615,202.1479431947181L840.5973153773532,202.93771440538512L841.3414558411207,206.2507397108651L841.0771916194573,208.0108020914696L839.0755258278036,208.96761243809885L836.6713804428343,209.28481920798754L834.8674712736519,210.62071859633193L832.7821630970082,208.30943765561835L834.4152940516847,207.64966960690754L833.719575301614,205.9260839536413L832.3212414594824,206.46870483729026L831.5644693532306,205.5069321961738L832.2342382946338,204.99019459451642L834.0106167408228,202.3565358754256L835.3919318667408,202.94520899145084L838.234616793902,202.82188480408752Z" style="fill: inherit; stroke: inherit; stroke-width: inherit;" vector-effect="non-scaling-stroke"><title>New London County</title></path><path id="county-09001" class="county feature" d="M820.7234094597806,210.42832341634607L822.6854213871023,211.14935693767927L824.8045933021965,212.74683752564147L824.5140094317848,214.09804604006194L823.8281170325081,215.50217388858744L820.8967902505856,218.39113914458585L818.1246901686677,220.29029221045664L816.6977431887517,218.52666350469678L819.5298192704727,215.67718946806883L818.011677443702,213.06842593759075L817.5016606788197,210.07782496458765L817.0455411563978,207.48441660244578L818.8560468149934,210.44554234781253Z" style="fill: inherit; stroke: inherit; stroke-width: inherit;" vector-effect="non-scaling-stroke"><title>Fairfield County</title></path><path id="county-09007" class="county feature" d="M832.1367477851284,211.74811286221552L832.0154367364369,211.69629785409563L832.1367477851284,211.74811286221552ZM831.5644693532306,205.5069321961738L832.3212414594824,206.46870483729026L833.719575301614,205.9260839536413L834.4152940516847,207.64966960690754L832.7821630970082,208.30943765561835L834.5009647124991,210.88290270626692L831.9560043292043,211.64453109678004L829.7074165537904,208.80051106517635L828.5375162950932,209.3839599533119L827.7460382533436,206.56303220905465L828.039962154593,205.54359762837873L830.7531103294792,204.4879385780945Z" style="fill: inherit; stroke: inherit; stroke-width: inherit;" vector-effect="non-scaling-stroke"><title>Middlesex County</title></path><path id="county-09009" class="county feature" d="M827.7460382533436,206.56303220905465L828.5375162950932,209.3839599533119L829.7074165537904,208.80051106517635L831.9560043292043,211.64453109678004L832.0154367364369,211.69629785409563L832.1367477851284,211.74811286221552L826.7293022551079,213.03728483080647L824.8196792584774,215.17466306299207L824.5140094317848,214.09804604006194L824.8045933021965,212.74683752564147L822.6854213871023,211.14935693767927L820.7234094597806,210.42832341634607L822.6069534911455,209.0899985403222L824.3671646782075,206.22620131487417L825.2335709513817,207.61654754250128Z" style="fill: inherit; stroke: inherit; stroke-width: inherit;" vector-effect="non-scaling-stroke"><title>New Haven County</title></path></g><path id="counties-mesh" class="counties mesh" d="M822.2249516584172,199.01750358366792L822.2718053201645,200.405486581393L824.1494147971764,199.8152240610558L824.0715400258516,203.0646743196072L823.1987719575654,203.44056942897396L824.3671646782075,206.22620131487417L822.6069534911455,209.0899985403222L820.7234094597806,210.42832341634607L818.8560468149934,210.44554234781253L817.0455411563978,207.48441660244578M828.9181582932212,197.4390131148475L829.9754561032014,201.528025149188L830.3830133983832,201.3594497134494L832.2342382946338,204.99019459451642L831.5644693532306,205.5069321961738L830.7531103294792,204.4879385780945L828.039962154593,205.54359762837873L827.7460382533436,206.56303220905465L825.2335709513817,207.61654754250128L824.3671646782075,206.22620131487417M834.3759761209913,196.15372759983427L834.7410890100639,197.41595637398018L833.1724083153047,197.83357265461086L833.7357798880574,200.07782948075157L834.9323307598956,201.35194010075827L834.0106167408228,202.3565358754256L832.2342382946338,204.99019459451642M820.7234094597806,210.42832341634607L822.6854213871023,211.14935693767927L824.8045933021965,212.74683752564147L824.5140094317848,214.09804604006194L823.8281170325081,215.50217388858744L820.8967902505856,218.39113914458585L818.1246901686677,220.29029221045664L816.6977431887517,218.52666350469678L819.5298192704727,215.67718946806883L818.011677443702,213.06842593759075L817.5016606788197,210.07782496458765L817.0455411563978,207.48441660244578L815.7715708903064,200.38561543899334L821.6208991622028,199.14870586913503L822.2249516584172,199.01750358366792L828.9181582932212,197.4390131148475L833.9241016460314,196.24260092247857L834.3759761209913,196.15372759983427L838.5140136694833,195.48651675571512L839.987367642271,200.61497540211053L840.4173540534615,202.1479431947181L838.234616793902,202.82188480408752L835.3919318667408,202.94520899145084L834.0106167408228,202.3565358754256M840.4173540534615,202.1479431947181L840.5973153773532,202.93771440538512L841.3414558411207,206.2507397108651L841.0771916194573,208.0108020914696L839.0755258278036,208.96761243809885L836.6713804428343,209.28481920798754L834.8674712736519,210.62071859633193L832.7821630970082,208.30943765561835L834.4152940516847,207.64966960690754L833.719575301614,205.9260839536413L832.3212414594824,206.46870483729026L831.5644693532306,205.5069321961738M832.7821630970082,208.30943765561835L834.5009647124991,210.88290270626692L831.9560043292043,211.64453109678004L829.7074165537904,208.80051106517635L828.5375162950932,209.3839599533119L827.7460382533436,206.56303220905465M831.9560043292043,211.64453109678004L832.0154367364369,211.69629785409563M832.1367477851284,211.74811286221552L832.0154367364369,211.69629785409563L832.1367477851284,211.74811286221552L826.7293022551079,213.03728483080647L824.8196792584774,215.17466306299207L824.5140094317848,214.09804604006194" style="fill: inherit; stroke: inherit; stroke-width: inherit;" vector-effect="non-scaling-stroke"></path></svg>

<svg xmlns="http://www.w3.org/2000/svg" version="1.2" id="root" viewBox="815.7715708903064 195.48651675571512 25.5698849508143 24.803775454741526"><g id="counties"><path id="county-09005" class="county feature" d="M821.62 199.149l.605-.131.047 1.387 1.877-.59-.077 3.25-.873.376 1.168 2.785-1.76 2.864-1.884 1.338-1.867.018-1.81-2.962-1.274-7.098z" vector-effect="non-scaling-stroke" fill="inherit" stroke="inherit" stroke-width="inherit"><title>Litchfield County</title></path><path id="county-09003" class="county feature" d="M828.918 197.439l1.057 4.089.408-.169 1.851 3.631-.67.517-.81-1.02-2.714 1.057-.294 1.019-2.512 1.054-.867-1.39-1.168-2.786.873-.376.077-3.25-1.877.59-.047-1.387z" vector-effect="non-scaling-stroke" fill="inherit" stroke="inherit" stroke-width="inherit"><title>Hartford County</title></path><path id="county-09013" class="county feature" d="M833.924 196.243l.452-.09.365 1.263-1.569.418.564 2.244 1.196 1.274-.921 1.005-1.777 2.633-1.851-3.63-.408.168-1.057-4.089z" vector-effect="non-scaling-stroke" fill="inherit" stroke="inherit" stroke-width="inherit"><title>Tolland County</title></path><path id="county-09015" class="county feature" d="M838.514 195.487l1.473 5.128.43 1.533-2.182.674-2.843.123-1.381-.588.921-1.005-1.196-1.274-.564-2.244 1.57-.418-.366-1.262z" vector-effect="non-scaling-stroke" fill="inherit" stroke="inherit" stroke-width="inherit"><title>Windham County</title></path><path id="county-09011" class="county feature" d="M840.417 202.148l.18.79.744 3.313-.264 1.76-2.001.957-2.405.317-1.804 1.336-2.085-2.312 1.633-.66-.695-1.723-1.399.543-.757-.962.67-.517 1.777-2.633 1.38.588 2.844-.123z" vector-effect="non-scaling-stroke" fill="inherit" stroke="inherit" stroke-width="inherit"><title>New London County</title></path><path id="county-09001" class="county feature" d="M820.723 210.428l1.962.721 2.12 1.598-.291 1.351-.686 1.404-2.931 2.89-2.772 1.898-1.427-1.763 2.832-2.85-1.518-2.609-.51-2.99-.456-2.594 1.81 2.962z" vector-effect="non-scaling-stroke" fill="inherit" stroke="inherit" stroke-width="inherit"><title>Fairfield County</title></path><path id="county-09007" class="county feature" d="M832.137 211.748l-.122-.052.122.052zm-.573-6.241l.757.962 1.399-.543.695 1.724-1.633.66 1.719 2.573-2.545.762-2.249-2.844-1.17.583-.791-2.821.294-1.02 2.713-1.055z" vector-effect="non-scaling-stroke" fill="inherit" stroke="inherit" stroke-width="inherit"><title>Middlesex County</title></path><path id="county-09009" class="county feature" d="M827.746 206.563l.792 2.821 1.17-.583 2.248 2.844.06.051.12.052-5.407 1.29-1.91 2.137-.305-1.077.29-1.351-2.119-1.598-1.962-.72 1.884-1.339 1.76-2.864.867 1.39z" vector-effect="non-scaling-stroke" fill="inherit" stroke="inherit" stroke-width="inherit"><title>New Haven County</title></path></g><path id="counties-mesh" class="counties mesh" d="M822.225 199.018l.047 1.387 1.877-.59-.077 3.25-.873.376 1.168 2.785-1.76 2.864-1.884 1.338-1.867.018-1.81-2.962m11.872-10.045l1.057 4.089.408-.169 1.851 3.631-.67.517-.81-1.02-2.714 1.057-.294 1.019-2.512 1.054-.867-1.39m10.009-10.073l.365 1.262-1.569.418.564 2.244 1.196 1.274-.921 1.005-1.777 2.633m-11.51 5.438l1.961.721 2.12 1.598-.291 1.351-.686 1.404-2.931 2.89-2.772 1.898-1.427-1.763 2.832-2.85-1.518-2.609-.51-2.99-.456-2.594-1.274-7.098 5.849-1.237.604-.131 6.693-1.579 5.006-1.196.452-.09 4.138-.666 1.473 5.128.43 1.533-2.182.674-2.843.123-1.381-.588m6.406-.21l.18.79.744 3.314-.264 1.76-2.001.957-2.405.317-1.804 1.336-2.085-2.312 1.633-.66-.695-1.723-1.399.543-.757-.962m1.218 2.802l1.719 2.574-2.545.762-2.249-2.844-1.17.583-.791-2.821m4.21 5.082l.06.051m.12.052l-.12-.052.12.052-5.407 1.29-1.91 2.137-.305-1.077" vector-effect="non-scaling-stroke" fill="inherit" stroke="inherit" stroke-width="inherit"/></svg>
